src/assets/outline/VoiceCricle.svg

<svg width="24" height="24" viewBox="0 0 24 24"  xmlns="http://www.w3.org/2000/svg">
<path d="M6 14.8901C5.59 14.8901 5.25 14.5501 5.25 14.1401V9.8501C5.25 9.4401 5.59 9.1001 6 9.1001C6.41 9.1001 6.75 9.4401 6.75 9.8501V14.1401C6.75 14.5601 6.41 14.8901 6 14.8901Z" />
<path d="M9 16.3199C8.59 16.3199 8.25 15.9799 8.25 15.5699V8.42993C8.25 8.01993 8.59 7.67993 9 7.67993C9.41 7.67993 9.75 8.01993 9.75 8.42993V15.5699C9.75 15.9899 9.41 16.3199 9 16.3199Z" />
<path d="M12 17.75C11.59 17.75 11.25 17.41 11.25 17V7C11.25 6.59 11.59 6.25 12 6.25C12.41 6.25 12.75 6.59 12.75 7V17C12.75 17.41 12.41 17.75 12 17.75Z" />
<path d="M15 16.3199C14.59 16.3199 14.25 15.9799 14.25 15.5699V8.42993C14.25 8.01993 14.59 7.67993 15 7.67993C15.41 7.67993 15.75 8.01993 15.75 8.42993V15.5699C15.75 15.9899 15.41 16.3199 15 16.3199Z" />
<path d="M18 14.8901C17.59 14.8901 17.25 14.5501 17.25 14.1401V9.8501C17.25 9.4401 17.59 9.1001 18 9.1001C18.41 9.1001 18.75 9.4401 18.75 9.8501V14.1401C18.75 14.5601 18.41 14.8901 18 14.8901Z" />
<path d="M12 22.75C6.07 22.75 1.25 17.93 1.25 12C1.25 6.07 6.07 1.25 12 1.25C17.93 1.25 22.75 6.07 22.75 12C22.75 17.93 17.93 22.75 12 22.75ZM12 2.75C6.9 2.75 2.75 6.9 2.75 12C2.75 17.1 6.9 21.25 12 21.25C17.1 21.25 21.25 17.1 21.25 12C21.25 6.9 17.1 2.75 12 2.75Z" />
</svg>

<?xml version="1.0" encoding="UTF-8"?>
<svg width="24" height="24" viewBox="0 0 24 24" xmlns="http://www.w3.org/2000/svg">
 <path d="m6 14.89c-0.41 0-0.75-0.34-0.75-0.75v-4.29c0-0.41 0.34-0.75 0.75-0.75s0.75 0.34 0.75 0.75v4.29c0 0.42-0.34 0.75-0.75 0.75z"/>
 <path d="m9 16.32c-0.41 0-0.75-0.34-0.75-0.75v-7.14c0-0.41 0.34-0.75 0.75-0.75s0.75 0.34 0.75 0.75v7.14c0 0.42-0.34 0.75-0.75 0.75z"/>
 <path d="m12 17.75c-0.41 0-0.75-0.34-0.75-0.75v-10c0-0.41 0.34-0.75 0.75-0.75s0.75 0.34 0.75 0.75v10c0 0.41-0.34 0.75-0.75 0.75z"/>
 <path d="m15 16.32c-0.41 0-0.75-0.34-0.75-0.75v-7.14c0-0.41 0.34-0.75 0.75-0.75s0.75 0.34 0.75 0.75v7.14c0 0.42-0.34 0.75-0.75 0.75z"/>
 <path d="m18 14.89c-0.41 0-0.75-0.34-0.75-0.75v-4.29c0-0.41 0.34-0.75 0.75-0.75s0.75 0.34 0.75 0.75v4.29c0 0.42-0.34 0.75-0.75 0.75z"/>
 <path d="m12 22.75c-5.93 0-10.75-4.82-10.75-10.75s4.82-10.75 10.75-10.75 10.75 4.82 10.75 10.75-4.82 10.75-10.75 10.75zm0-20c-5.1 0-9.25 4.15-9.25 9.25s4.15 9.25 9.25 9.25 9.25-4.15 9.25-9.25-4.15-9.25-9.25-9.25z"/>
</svg>
